X: 1
T: Big Dark's Fancy
C: J-24
C: Cindy Kellet   1986
M: 6/8
Z: Transcribed to abc by Mary Lou Knack
R: jig
K: D
A|: "D"dAG FED| FGA d2A| "G"B2B "D"A2F| "A7"GFG EDE|
    "D"EDE "D"D2D| "G"G2B "D"A2F| "G"GFG "A7"E2D| "D"D3 z2z:|
|:\
"D"f2d dcd| f2d dcd| f3 "G"g3| "A"eAB cBA|
"G"B2d "D"A2d| "A7"GFG EAF| "G"GFG "A7"E2D| "D"D3 z2z:|
%%text 9/1/98
